src/images/MavenHive-logo_red.svg

<svg height="25" viewBox="0 0 160 25" width="160" xmlns="http://www.w3.org/2000/svg"><g fill="none" fill-rule="evenodd"><path d="m-60-27h1294v80h-1294z" fill="#fff"/><g fill="#ee5c6e"><g transform="translate(40.057567 8.290816)"><path d="m17.9035425 1.93520311v13.65949999c0 .5720825-.4638587 1.0294466-1.0433308 1.0294466-.5798234 0-1.066758-.4573641-1.066758-1.0294466v-12.99580535l-5.3576858 13.06419515c-.254888.5719664-.81140142.9610568-1.4842309.9610568-.67236093 0-1.22875717-.3890904-1.4842309-.9610568l-5.35721728-13.06419515v12.99580535c0 .5720825-.48681743 1.0294466-1.06675802 1.0294466-.57994058 0-1.0433308-.4573641-1.0433308-1.0294466v-13.65949999c0-.82346439.67236093-1.51003304 1.50718957-1.51003304h.76536695c.62597506 0 1.18283984.41196441 1.41488636.96117289l5.26409412 12.94982504 5.2646798-12.94982504c.2320465-.54920848.7883256-.96117289 1.4147692-.96117289h.765367c.8348286 0 1.5071895.68656865 1.5071895 1.51003304"/><path d="m28.9285913 13.1651872v-1.9204528h-2.5301102c-2.1823344 0-3.5055475.5030862-3.5055475 1.8062838 0 .9828513.5800563 1.8289087 2.4605784 1.8289087 1.4392948 0 2.7859588-.8230844 3.5750793-1.7147397m2.1128026-4.06935963v6.47015763c0 .5716572-.4874255 1.0286814-1.0679508 1.0286814-.5804081 0-1.0448518-.4570242-1.0448518-1.0286814v-.5943982c-.8356704.8453612-2.1823344 1.7375967-4.3641997 1.7375967-2.0197029 0-3.7842607-1.2804566-3.7842607-3.4298275 0-2.1492549 1.7180079-3.70341544 5.3395198-3.70341544h2.8089406v-.18285606c0-2.03485384-1.021401-2.83531322-3.1106355-2.83531322-1.3001141 0-2.2288843.27451614-3.0875365.54891626-.093217.02274099-.2091814.04548197-.3018122.04548197-.4644437 0-.8592385-.36548008-.8592385-.86879836 0-.38833708.2091815-.70868327.6040935-.86879835 1.0909326-.45714016 2.3674786-.82273627 4.0157203-.82273627 3.3894659 0 4.8522115 2.26319188 4.8522115 4.50399084"/><path d="m44.2221794 5.7723811c0 .18299289-.0464663.32044088-.1158732.48066131l-4.0322711 9.52399539c-.2083377.4578889-.6952393.8471119-1.2742543.8471119h-.2317465c-.5793661 0-1.0660336-.389223-1.2748395-.8471119l-4.0321541-9.52399539c-.0694069-.16022043-.1158732-.29766842-.1158732-.48066131 0-.57244822.4634929-1.05299334 1.0429761-1.05299334.4171436 0 .8112296.2515426.9500433.59533685l3.5457207 8.88241659 3.5456035-8.88241659c.1388138-.34379425.5330169-.59533685.9501605-.59533685.5787809 0 1.0425078.48054512 1.0425078 1.05299334"/><path d="m47.947231 9.69017699h6.8506015c-.1392265-2.37780222-1.9508133-3.33790339-3.43703-3.33790339-1.486334 0-3.2744623.96010117-3.4135715 3.33790339m8.5459512 5.16679461c0 .3654766-.2786876.6629629-.604175.8460493-1.0216201.5715357-2.0433574 1.0061628-4.0637254 1.0061628-3.7853895 0-6.0145386-2.2182688-6.0145386-6.0590216 0-3.08636265 1.6949978-6.05832537 5.5500593-6.05832537 3.5761392 0 5.5269526 2.72053804 5.5269526 5.76107107 0 .5715358-.4179141 1.0289036-1.0683026 1.0289036h-7.8722215c.2322397 2.0575752 1.5557713 3.383385 4.0637253 3.383385 1.3936727 0 2.2757143-.2742815 3.1352357-.7085605.1392266-.0684544.2553464-.0911951.4180315-.0911951.4874687 0 .9289587.3653605.9289587.8915308"/><path d="m70.2832114 9.08374515v6.50919635c0 .5730614-.4859793 1.0312082-1.0647322 1.0312082-.5795719 0-1.042972-.4581468-1.042972-1.0312082v-6.27994852c0-1.74186484-.740785-2.79598618-2.5473552-2.79598618-1.6677022 0-2.8721213 1.05412134-3.7986875 2.2001279v6.8758068c0 .5730614-.4863303 1.0312082-1.0655512 1.0312082-.5791039 0-1.042504-.4581468-1.042504-1.0312082v-9.83230136c0-.59585828.4634001-1.05412133 1.042504-1.05412133.5792209 0 1.0655512.45826305 1.0655512 1.05412133v.93955557c.9727775-1.05412133 2.2463381-2.10835898 4.308065-2.10835898 2.6402458 0 4.1456819 2.03961953 4.1456819 4.49190842"/><path d="m86.9845976 1.47749821v14.11719749c0 .5722027-.4872347 1.029454-1.0667628 1.029454-.5803481 0-1.044158-.4572513-1.044158-1.029454v-6.08615604h-8.7881442v6.08615604c0 .5722027-.4873518 1.029454-1.0667629 1.029454s-1.043221-.4572513-1.043221-1.029454v-14.11719749c0-.57208659.4638099-1.05232814 1.043221-1.05232814s1.0667629.48024155 1.0667629 1.05232814v6.08627215h8.7881442v-6.08627215c0-.57208659.4638099-1.05232814 1.044158-1.05232814.5795281 0 1.0667628.48024155 1.0667628 1.05232814"/><path d="m93.0027485 5.74062627v9.81192323c0 .5719966-.4611878 1.0290832-1.0607319 1.0290832-.577067 0-1.0382547-.4570866-1.0382547-1.0290832v-9.81192323c0-.59463036.4611877-1.05194904 1.0382547-1.05194904.5995441 0 1.0607319.45731868 1.0607319 1.05194904m.2073016-4.48299989c0 .64024616-.530366 1.16651086-1.1754465 1.16651086h-.1390551c-.6453135 0-1.1756794-.5262647-1.1756794-1.16651086v-.09169588c0-.64013008.5303659-1.1659305 1.1756794-1.1659305h.1390551c.6450805 0 1.1754465.52580042 1.1754465 1.1659305"/><path d="m106.605506 5.7723811c0 .18299289-.046816.32044088-.116339.48066131l-4.031951 9.52399539c-.208334.4578889-.695342.8471119-1.274345.8471119h-.231741c-.578886 0-1.0657774-.389223-1.2743448-.8471119l-4.0320689-9.52399539c-.0694054-.16022043-.1162219-.29766842-.1162219-.48066131 0-.57244822.4634831-1.05299334 1.0434222-1.05299334.4164325 0 .8106272.2515426.9494381.59533685l3.5462313 8.88241659 3.54506-8.88241659c.138811-.34379425.532889-.59533685.949672-.59533685.579939 0 1.043188.48054512 1.043188 1.05299334"/><path d="m110.330467 9.69017699h6.850312c-.139104-2.37780222-1.950144-3.33790339-3.435946-3.33790339-1.486741 0-3.275262.96010117-3.414366 3.33790339m8.54559 5.16679461c0 .3654766-.278207.6629629-.603681.8460493-1.022163.5715357-2.04327 1.0061628-4.064022 1.0061628-3.784877 0-6.014284-2.2182688-6.014284-6.0590216 0-3.08636265 1.695278-6.05832537 5.550763-6.05832537 3.575987 0 5.526249 2.72053804 5.526249 5.76107107 0 .5715358-.418366 1.0289036-1.068257 1.0289036h-7.872358c.232113 2.0575752 1.55641 3.383385 4.064023 3.383385 1.393496 0 2.275735-.2742815 3.135103-.7085605.13922-.0684544.254749-.0911951.417662-.0911951.487917 0 .928802.3653605.928802.8915308"/></g><g transform="translate(.171737)"><path d="m20.8423403 16.3334243c.5679672-.6621078 1.0318881-2.0315143 1.0318881-3.0403479v-3.0008868c0-1.01006136.930218-1.83516368 2.0631561-1.83516368l2.0753482-.00068213c1.1375876 0 2.0678746.82578445 2.0678746 1.83584581v3.7420532c0 1.0100614-.930287 1.8350614-2.0678746 1.8350614h-1.1564268c-1.1342468.0017395-2.5157458.5365962-3.0671469 1.1885062-.5481292.6523874-.9995134 2.0149727-.9995134 3.0221691v3.0372101c0 1.0099591-.930287 1.8346863-2.0666347 1.8346863h-2.0745906c-1.13466 0-2.0651192-.8247272-2.0651192-1.8346863v-3.7415757c0-1.0111869.9304592-1.8361528 2.0651192-1.8361528h1.0982904c1.1358311 0 2.5290401-.542633 3.0956296-1.2060368"/><path d="m26.1262504.01173261c1.1353834 0 2.066738.82428376 2.066738 1.83502728v3.74120055c0 1.0106412-.9313546 1.83615279-2.066738 1.83615279h-2.0756238c-1.1376564 0-2.0684256-.82551159-2.0684256-1.83615279v-3.74120055c0-1.01074352.9307692-1.83502728 2.0684256-1.83502728"/><path d="m28.1234175 17.073397c.5671062.6656889 1.0299249 2.0326057 1.0299249 3.0425648v2.999352c0 1.0118349.9324567 1.8346521 2.0664624 1.8346521h2.0758993c1.1356934 0 2.0648438-.8228172 2.0648438-1.8346521v-3.740382c0-1.0110505-.9291504-1.8354707-2.0648438-1.8354707h-1.15746c-1.1340402 0-2.5151948-.5346862-3.0669058-1.1875511-.5483703-.6540587-1.00096-2.013438-1.00096-3.023397v-3.0362893c0-1.01006135-.9280483-1.8358458-2.0657048-1.8358458l-2.0755549.00064802c-1.1343156 0-2.0656703.82513643-2.0656703 1.83519778v3.7420532c0 1.0100614.9313547 1.8368009 2.0656703 1.8368009l1.0987037-.0017736c1.1381386 0 2.5278691.5422238 3.0955952 1.2040928"/><path d="m6.27095585 16.3532742c.56689954-.6615962 1.03071704-2.0307981 1.03071704-3.0410641v-3.0000341c0-1.00995908.93004587-1.83516372 2.06511925-1.83516372l2.07624376-.00208049c1.1359344 0 2.0652225.82728513 2.0652225 1.83724421v3.742326c0 1.0097886-.9292881 1.8351638-2.0652225 1.8351638h-1.1572879c-1.13596886.0010914-2.51629689.5359481-3.06676805 1.1885061-.55016119.6521487-1.00157991 2.013472-1.00157991 3.0216235v3.036869c0 1.0100614-.92804829 1.8350273-2.06484373 1.8350273h-2.07479719c-1.13610662 0-2.06608361-.8249659-2.06608361-1.8350273v-3.7415075c0-1.0101978.92997699-1.8357094 2.06608361-1.8357094h1.0977393c1.13486674 0 2.52762799-.5422238 3.09545743-1.2061733"/><path d="m13.5525496 17.0934857c.5680017.6642906 1.0307515 2.0316507 1.0307515 3.0431105v2.999352c0 1.0107435.9304247 1.8346521 2.0651192 1.8346521h2.0745561c1.1363478 0 2.0666347-.8239086 2.0666347-1.8346521v-3.7420532c0-1.0106071-.9302869-1.8344816-2.0666347-1.8344816h-1.155738c-1.1355555 0-2.5163313-.5349932-3.065907-1.187824-.5510222-.6541951-1.0010633-2.0138814-1.0010633-3.0228513v-3.0365621c0-1.00995908-.9298736-1.83724421-2.0665313-1.83724421l-2.07493498.00204638c-1.13555556 0-2.06522258.82523875-2.06522258 1.83519783v3.7422919c0 1.0097886.92966702 1.8362893 2.06522258 1.8362893l1.09787708-.0010914c1.1366577 0 2.5291434.5418144 3.0958707 1.2038199"/></g></g></g></svg>

<?xml version="1.0" encoding="UTF-8"?>
<svg width="160px" height="25px" viewBox="0 0 160 25" version="1.1" xmlns="http://www.w3.org/2000/svg" xmlns:xlink="http://www.w3.org/1999/xlink">
    <!-- Generator: Sketch 46.2 (44496) - http://www.bohemiancoding.com/sketch -->
    <title>Logo_red</title>
    <desc>Created with Sketch.</desc>
    <defs></defs>
    <g id="Page-1" stroke="none" stroke-width="1" fill="none" fill-rule="evenodd">
        <g id="MH-Home-2" transform="translate(-60.000000, -27.000000)">
            <g id="Top">
                <g id="Header">
                    <rect id="Rectangle-4" fill="#FFFFFF" x="0" y="0" width="1294" height="80"></rect>
                    <g id="black" transform="translate(60.171737, 27.000000)" fill="#EE5C6E">
                        <g id="Text" transform="translate(39.885830, 8.290816)">
                            <path d="M17.9035425,1.93520311 L17.9035425,15.5947031 C17.9035425,16.1667856 17.4396838,16.6241497 16.8602117,16.6241497 C16.2803883,16.6241497 15.7934537,16.1667856 15.7934537,15.5947031 L15.7934537,2.59889775 L10.4357679,15.6630929 C10.1808799,16.2350593 9.62436648,16.6241497 8.951537,16.6241497 C8.27917607,16.6241497 7.72277983,16.2350593 7.4673061,15.6630929 L2.11008882,2.59889775 L2.11008882,15.5947031 C2.11008882,16.1667856 1.62327139,16.6241497 1.0433308,16.6241497 C0.463390217,16.6241497 0,16.1667856 0,15.5947031 L0,1.93520311 C0,1.11173872 0.672360932,0.425170068 1.50718957,0.425170068 L2.27255652,0.425170068 C2.89853158,0.425170068 3.45539636,0.837134484 3.68744288,1.38634296 L8.951537,14.336168 L14.2162168,1.38634296 C14.4482633,0.837134484 15.0045424,0.425170068 15.630986,0.425170068 L16.396353,0.425170068 C17.2311816,0.425170068 17.9035425,1.11173872 17.9035425,1.93520311" id="Fill-8"></path>
                            <path d="M28.9285913,13.1651872 L28.9285913,11.2447344 L26.3984811,11.2447344 C24.2161467,11.2447344 22.8929336,11.7478206 22.8929336,13.0510182 C22.8929336,14.0338695 23.4729899,14.8799269 25.353512,14.8799269 C26.7928068,14.8799269 28.1394708,14.0568425 28.9285913,13.1651872 M31.0413939,9.09582757 L31.0413939,15.5659852 C31.0413939,16.1376424 30.5539684,16.5946666 29.9734431,16.5946666 C29.393035,16.5946666 28.9285913,16.1376424 28.9285913,15.5659852 L28.9285913,14.971587 C28.0929209,15.8169482 26.7462569,16.7091837 24.5643916,16.7091837 C22.5446887,16.7091837 20.7801309,15.4287271 20.7801309,13.2793562 C20.7801309,11.1301013 22.4981388,9.57594076 26.1196507,9.57594076 L28.9285913,9.57594076 L28.9285913,9.3930847 C28.9285913,7.35823086 27.9071903,6.55777148 25.8179558,6.55777148 C24.5178417,6.55777148 23.5890715,6.83228762 22.7304193,7.10668774 C22.6372023,7.12942873 22.5212379,7.15216971 22.4286071,7.15216971 C21.9641634,7.15216971 21.5693686,6.78668963 21.5693686,6.28337135 C21.5693686,5.89503427 21.7785501,5.57468808 22.1734621,5.414573 C23.2643947,4.95743284 24.5409407,4.59183673 26.1891824,4.59183673 C29.5786483,4.59183673 31.0413939,6.85502861 31.0413939,9.09582757" id="Fill-9"></path>
                            <path d="M44.2221794,5.7723811 C44.2221794,5.95537399 44.1757131,6.09282198 44.1063062,6.25304241 L40.0740351,15.7770378 C39.8656974,16.2349267 39.3787958,16.6241497 38.7997808,16.6241497 L38.5680343,16.6241497 C37.9886682,16.6241497 37.5020007,16.2349267 37.2931948,15.7770378 L33.2610407,6.25304241 C33.1916338,6.09282198 33.1451675,5.95537399 33.1451675,5.7723811 C33.1451675,5.19993288 33.6086604,4.71938776 34.1881436,4.71938776 C34.6052872,4.71938776 34.9993732,4.97093036 35.1381869,5.31472461 L38.6839076,14.1971412 L42.2295111,5.31472461 C42.3683249,4.97093036 42.762528,4.71938776 43.1796716,4.71938776 C43.7584525,4.71938776 44.2221794,5.19993288 44.2221794,5.7723811" id="Fill-10"></path>
                            <path d="M47.947231,9.69017699 L54.7978325,9.69017699 C54.658606,7.31237477 52.8470192,6.3522736 51.3608025,6.3522736 C49.8744685,6.3522736 48.0863402,7.31237477 47.947231,9.69017699 M56.4931822,14.8569716 C56.4931822,15.2224482 56.2144946,15.5199345 55.8890072,15.7030209 C54.8673871,16.2745566 53.8456498,16.7091837 51.8252818,16.7091837 C48.0398923,16.7091837 45.8107432,14.4909149 45.8107432,10.6501621 C45.8107432,7.56379945 47.505741,4.59183673 51.3608025,4.59183673 C54.9369417,4.59183673 56.8877551,7.31237477 56.8877551,10.3529078 C56.8877551,10.9244436 56.469841,11.3818114 55.8194525,11.3818114 L47.947231,11.3818114 C48.1794707,13.4393866 49.5030023,14.7651964 52.0109563,14.7651964 C53.404629,14.7651964 54.2866706,14.4909149 55.146192,14.0566359 C55.2854186,13.9881815 55.4015384,13.9654408 55.5642235,13.9654408 C56.0516922,13.9654408 56.4931822,14.3308013 56.4931822,14.8569716" id="Fill-11"></path>
                            <path d="M70.2832114,9.08374515 L70.2832114,15.5929415 C70.2832114,16.1660029 69.7972321,16.6241497 69.2184792,16.6241497 C68.6389073,16.6241497 68.1755072,16.1660029 68.1755072,15.5929415 L68.1755072,9.31299298 C68.1755072,7.57112814 67.4347222,6.5170068 65.628152,6.5170068 C63.9604498,6.5170068 62.7560307,7.57112814 61.8294645,8.7171347 L61.8294645,15.5929415 C61.8294645,16.1660029 61.3431342,16.6241497 60.7639133,16.6241497 C60.1848094,16.6241497 59.7214093,16.1660029 59.7214093,15.5929415 L59.7214093,5.76064014 C59.7214093,5.16478186 60.1848094,4.70651881 60.7639133,4.70651881 C61.3431342,4.70651881 61.8294645,5.16478186 61.8294645,5.76064014 L61.8294645,6.70019571 C62.802242,5.64607438 64.0758026,4.59183673 66.1375295,4.59183673 C68.7777753,4.59183673 70.2832114,6.63145626 70.2832114,9.08374515" id="Fill-12"></path>
                            <path d="M86.9845976,1.47749821 L86.9845976,15.5946957 C86.9845976,16.1668984 86.4973629,16.6241497 85.9178348,16.6241497 C85.3374867,16.6241497 84.8736768,16.1668984 84.8736768,15.5946957 L84.8736768,9.50853966 L76.0855326,9.50853966 L76.0855326,15.5946957 C76.0855326,16.1668984 75.5981808,16.6241497 75.0187697,16.6241497 C74.4393586,16.6241497 73.9755487,16.1668984 73.9755487,15.5946957 L73.9755487,1.47749821 C73.9755487,0.905411623 74.4393586,0.425170068 75.0187697,0.425170068 C75.5981808,0.425170068 76.0855326,0.905411623 76.0855326,1.47749821 L76.0855326,7.56377036 L84.8736768,7.56377036 L84.8736768,1.47749821 C84.8736768,0.905411623 85.3374867,0.425170068 85.9178348,0.425170068 C86.4973629,0.425170068 86.9845976,0.905411623 86.9845976,1.47749821" id="Fill-13"></path>
                            <path d="M93.0027485,5.74062627 L93.0027485,15.5525495 C93.0027485,16.1245461 92.5415607,16.5816327 91.9420166,16.5816327 C91.3649496,16.5816327 90.9037619,16.1245461 90.9037619,15.5525495 L90.9037619,5.74062627 C90.9037619,5.14599591 91.3649496,4.68867723 91.9420166,4.68867723 C92.5415607,4.68867723 93.0027485,5.14599591 93.0027485,5.74062627 M93.2100501,1.25762638 C93.2100501,1.89787254 92.6796841,2.42413724 92.0346036,2.42413724 L91.8955485,2.42413724 C91.250235,2.42413724 90.7198691,1.89787254 90.7198691,1.25762638 L90.7198691,1.1659305 C90.7198691,0.525800417 91.250235,0 91.8955485,0 L92.0346036,0 C92.6796841,0 93.2100501,0.525800417 93.2100501,1.1659305" id="Fill-14"></path>
                            <path d="M106.605506,5.7723811 C106.605506,5.95537399 106.55869,6.09282198 106.489167,6.25304241 L102.457216,15.7770378 C102.248882,16.2349267 101.761874,16.6241497 101.182871,16.6241497 L100.95113,16.6241497 C100.372244,16.6241497 99.8853526,16.2349267 99.6767852,15.7770378 L95.6447163,6.25304241 C95.5753109,6.09282198 95.5284944,5.95537399 95.5284944,5.7723811 C95.5284944,5.19993288 95.9919775,4.71938776 96.5719166,4.71938776 C96.9883491,4.71938776 97.3825438,4.97093036 97.5213547,5.31472461 L101.067586,14.1971412 L104.612646,5.31472461 C104.751457,4.97093036 105.145535,4.71938776 105.562318,4.71938776 C106.142257,4.71938776 106.605506,5.19993288 106.605506,5.7723811" id="Fill-15"></path>
                            <path d="M110.330467,9.69017699 L117.180779,9.69017699 C117.041675,7.31237477 115.230635,6.3522736 113.744833,6.3522736 C112.258092,6.3522736 110.469571,7.31237477 110.330467,9.69017699 M118.876057,14.8569716 C118.876057,15.2224482 118.59785,15.5199345 118.272376,15.7030209 C117.250213,16.2745566 116.229106,16.7091837 114.208354,16.7091837 C110.423477,16.7091837 108.19407,14.4909149 108.19407,10.6501621 C108.19407,7.56379945 109.889348,4.59183673 113.744833,4.59183673 C117.32082,4.59183673 119.271082,7.31237477 119.271082,10.3529078 C119.271082,10.9244436 118.852716,11.3818114 118.202825,11.3818114 L110.330467,11.3818114 C110.56258,13.4393866 111.886877,14.7651964 114.39449,14.7651964 C115.787986,14.7651964 116.670225,14.4909149 117.529593,14.0566359 C117.668813,13.9881815 117.784342,13.9654408 117.947255,13.9654408 C118.435172,13.9654408 118.876057,14.3308013 118.876057,14.8569716" id="Fill-16"></path>
                        </g>
                        <g id="Symbol">
                            <path d="M20.8423403,16.3334243 C21.4103075,15.6713165 21.8742284,14.30191 21.8742284,13.2930764 L21.8742284,10.2921896 C21.8742284,9.28212824 22.8044464,8.45702592 23.9373845,8.45702592 L26.0127327,8.45634379 C27.1503203,8.45634379 28.0806073,9.28212824 28.0806073,10.2921896 L28.0806073,14.0342428 C28.0806073,15.0443042 27.1503203,15.8693042 26.0127327,15.8693042 L24.8563059,15.8693042 C23.7220591,15.8710437 22.3405601,16.4059004 21.789159,17.0578104 C21.2410298,17.7101978 20.7896456,19.0727831 20.7896456,20.0799795 L20.7896456,23.1171896 C20.7896456,24.1271487 19.8593586,24.9518759 18.7230109,24.9518759 L16.6484203,24.9518759 C15.5137603,24.9518759 14.5833011,24.1271487 14.5833011,23.1171896 L14.5833011,19.3756139 C14.5833011,18.364427 15.5137603,17.5394611 16.6484203,17.5394611 L17.7467107,17.5394611 C18.8825418,17.5394611 20.2757508,16.9968281 20.8423403,16.3334243" id="Fill-3"></path>
                            <path d="M26.1262504,0.0117326057 C27.2616338,0.0117326057 28.1929884,0.836016371 28.1929884,1.84675989 L28.1929884,5.58796044 C28.1929884,6.59860164 27.2616338,7.42411323 26.1262504,7.42411323 L24.0506266,7.42411323 C22.9129702,7.42411323 21.982201,6.59860164 21.982201,5.58796044 L21.982201,1.84675989 C21.982201,0.836016371 22.9129702,0.0117326057 24.0506266,0.0117326057" id="Fill-4"></path>
                            <path d="M28.1234175,17.073397 C28.6905237,17.7390859 29.1533424,19.1060027 29.1533424,20.1159618 L29.1533424,23.1153138 C29.1533424,24.1271487 30.0857991,24.9499659 31.2198048,24.9499659 L33.2957041,24.9499659 C34.4313975,24.9499659 35.3605479,24.1271487 35.3605479,23.1153138 L35.3605479,19.3749318 C35.3605479,18.3638813 34.4313975,17.5394611 33.2957041,17.5394611 L32.1382441,17.5394611 C31.0042039,17.5394611 29.6230493,17.0047749 29.0713383,16.35191 C28.522968,15.6978513 28.0703783,14.338472 28.0703783,13.328513 L28.0703783,10.2922237 C28.0703783,9.28216235 27.14233,8.4563779 26.0046735,8.4563779 L23.9291186,8.45702592 C22.794803,8.45702592 21.8634483,9.28216235 21.8634483,10.2922237 L21.8634483,14.0342769 C21.8634483,15.0443383 22.794803,15.8710778 23.9291186,15.8710778 L25.0278223,15.8693042 C26.1659609,15.8693042 27.5556914,16.411528 28.1234175,17.073397" id="Fill-5"></path>
                            <path d="M6.27095585,16.3532742 C6.83785539,15.691678 7.30167289,14.3224761 7.30167289,13.3122101 L7.30167289,10.312176 C7.30167289,9.30221692 8.23171876,8.47701228 9.36679214,8.47701228 L11.4430359,8.47493179 C12.5789703,8.47493179 13.5082584,9.30221692 13.5082584,10.312176 L13.5082584,14.054502 C13.5082584,15.0642906 12.5789703,15.8896658 11.4430359,15.8896658 L10.285748,15.8896658 C9.14977914,15.8907572 7.76945111,16.4256139 7.21897995,17.0781719 C6.66881876,17.7303206 6.21740004,19.0916439 6.21740004,20.0997954 L6.21740004,23.1366644 C6.21740004,24.1467258 5.28935175,24.9716917 4.15255631,24.9716917 L2.07775912,24.9716917 C0.941652501,24.9716917 0.0116755129,24.1467258 0.0116755129,23.1366644 L0.0116755129,19.3951569 C0.0116755129,18.3849591 0.941652501,17.5594475 2.07775912,17.5594475 L3.17549842,17.5594475 C4.31036516,17.5594475 5.70312641,17.0172237 6.27095585,16.3532742" id="Fill-6"></path>
                            <path d="M13.5525496,17.0934857 C14.1205513,17.7577763 14.5833011,19.1251364 14.5833011,20.1365962 L14.5833011,23.1359482 C14.5833011,24.1466917 15.5137258,24.9706003 16.6484203,24.9706003 L18.7229764,24.9706003 C19.8593242,24.9706003 20.7896111,24.1466917 20.7896111,23.1359482 L20.7896111,19.393895 C20.7896111,18.3832879 19.8593242,17.5594134 18.7229764,17.5594134 L17.5672384,17.5594134 C16.4316829,17.5594134 15.0509071,17.0244202 14.5013314,16.3715894 C13.9503092,15.7173943 13.5002681,14.357708 13.5002681,13.3487381 L13.5002681,10.312176 C13.5002681,9.30221692 12.5703945,8.47493179 11.4337368,8.47493179 L9.35880182,8.47697817 C8.22324626,8.47697817 7.29357924,9.30221692 7.29357924,10.312176 L7.29357924,14.0544679 C7.29357924,15.0642565 8.22324626,15.8907572 9.35880182,15.8907572 L10.4566789,15.8896658 C11.5933366,15.8896658 12.9858223,16.4314802 13.5525496,17.0934857" id="Fill-7"></path>
                        </g>
                    </g>
                </g>
            </g>
        </g>
    </g>
</svg>
